configs/network-logos/tangible-logo-dark.svg

<svg width="134" height="24" viewBox="0 0 134 24" fill="none" xmlns="http://www.w3.org/2000/svg">
<g clip-path="url(#clip0_11035_1068)">
<path d="M5.43731 4.47497H1.11118C0.499408 4.47497 0 3.97497 0 3.36247C0 2.74997 0.499408 2.28122 1.11118 2.28122H12.1231C12.7349 2.28122 13.2031 2.75622 13.2031 3.36247C13.2031 3.96872 12.7287 4.47497 12.1231 4.47497H7.79698V20.75C7.79698 21.3875 7.27261 21.9437 6.60465 21.9437C5.96792 21.9437 5.43731 21.3875 5.43731 20.75V4.47497Z" fill="white"/>
<path d="M46.32 2.0563C45.6523 2.0563 45.1278 2.61256 45.1278 3.25005V17.6126L34.5216 2.50005C34.3281 2.25005 33.966 2.0563 33.579 2.0563C32.8861 2.0563 32.3554 2.61256 32.3554 3.3063V20.75C32.3554 21.3875 32.8798 21.9438 33.5228 21.9438C34.1907 21.9438 34.7151 21.3875 34.7151 20.75V6.38755L45.1216 21.2688C45.4212 21.7126 45.8457 21.9438 46.2576 21.9438C46.9506 21.9438 47.4812 21.3875 47.4812 20.6938V3.25005C47.4812 2.61256 46.9567 2.0563 46.32 2.0563Z" fill="white"/>
<path d="M51.6947 12C51.6947 6.41873 56.0523 2 61.5706 2C64.6796 2 67.3702 3.41875 69.0869 5.5C69.3114 5.75 69.4176 6.05625 69.4176 6.33127C69.4176 6.96873 68.8931 7.5 68.2253 7.5C67.9192 7.5 67.5571 7.30625 67.2825 7.02498C65.9531 5.35625 63.9555 4.25 61.5645 4.25C57.4008 4.25 54.1294 7.66873 54.1294 12C54.1294 16.3062 57.4008 19.725 61.5645 19.725C65.1976 19.725 68.0816 17.1125 68.7498 13.6438H63.2C62.5882 13.6438 62.12 13.1687 62.12 12.5625C62.12 11.95 62.5943 11.45 63.2 11.45H70.3041C70.9159 11.45 71.3841 11.95 71.3841 12.6187C71.2278 17.3625 67.1763 22 61.5767 22C56.0523 22 51.6947 17.5813 51.6947 12Z" fill="white"/>
<path d="M75.7788 3.25005C75.7788 2.5813 76.3033 2.0563 76.9461 2.0563C77.6143 2.0563 78.1384 2.5813 78.1384 3.25005V20.75C78.1384 21.3875 77.6143 21.9438 76.9461 21.9438C76.3094 21.9438 75.7788 21.3875 75.7788 20.75V3.25005Z" fill="white"/>
<path d="M91.4853 11.8063C93.5392 11.0563 94.4567 9.25003 94.4567 7.50003C94.4567 4.61252 92.1845 2.27502 89.0196 2.27502H84.4437C83.8069 2.27502 83.2763 2.80002 83.2763 3.44377V20.525C83.2763 21.1938 83.8004 21.7188 84.4437 21.7188H89.1877C92.409 21.7188 94.7375 19.3313 94.7375 16.3875C94.7314 14.4438 93.62 12.5563 91.4853 11.8063ZM88.6824 4.47502C90.7049 4.47502 92.0098 5.86252 92.0098 7.64378C92.0098 9.39378 90.6237 10.7813 88.8759 10.7813H85.6298V4.47502H88.6824ZM88.851 19.525H85.6298V12.975H89.0445C90.8486 12.975 92.2906 14.45 92.2906 16.25C92.2906 18.0813 90.9298 19.525 88.851 19.525Z" fill="white"/>
<path d="M99.2571 3.25005C99.2571 2.5813 99.7816 2.0563 100.424 2.0563C101.093 2.0563 101.617 2.5813 101.617 3.25005V19.5251H108.303C108.915 19.5251 109.383 20 109.383 20.6063C109.383 21.2188 108.908 21.7188 108.303 21.7188H100.424C99.7878 21.7188 99.2571 21.1938 99.2571 20.5251V3.25005Z" fill="white"/>
<path d="M29.0468 19.2875L21.8678 3.28125C21.2623 1.9375 20.2822 1.9375 19.6767 3.28125L12.5039 19.2875C11.8984 20.6313 12.61 21.7313 14.0833 21.7313H27.4674C28.9344 21.7313 29.6461 20.6313 29.0468 19.2875ZM14.9198 19.5313L20.7754 6.38751L26.6309 19.5313H14.9198Z" fill="white"/>
<path d="M114.146 4.51874H123.366C123.984 4.51874 124.49 4.01874 124.49 3.39374C124.49 2.77499 123.991 2.26874 123.366 2.26874H114.146C113.528 2.26874 113.022 2.76874 113.022 3.39374C113.022 4.01249 113.528 4.51874 114.146 4.51874Z" fill="white"/>
<path d="M114.146 21.7313H123.366C123.984 21.7313 124.49 21.2313 124.49 20.6063C124.49 19.9875 123.991 19.4813 123.366 19.4813H114.146C113.528 19.4813 113.022 19.9813 113.022 20.6063C113.022 21.2313 113.528 21.7313 114.146 21.7313Z" fill="white"/>
<path d="M115.663 13.05H121.849C122.467 13.05 122.973 12.55 122.973 11.925C122.973 11.3063 122.473 10.8 121.849 10.8H115.663C115.045 10.8 114.539 11.3 114.539 11.925C114.545 12.55 115.045 13.05 115.663 13.05Z" fill="white"/>
</g>
<defs>
<clipPath id="clip0_11035_1068">
<rect width="124.49" height="20" fill="white" transform="translate(0 2)"/>
</clipPath>
</defs>
</svg>

<svg xmlns="http://www.w3.org/2000/svg" fill="none" viewBox="0 0 134 24">
  <g fill="#fff" clip-path="url(#tangible-logo-dark_svg__a)">
    <path d="M5.437 4.475H1.111C.5 4.475 0 3.975 0 3.362c0-.612.5-1.08 1.111-1.08h11.012c.612 0 1.08.474 1.08 1.08 0 .607-.474 1.113-1.08 1.113H7.797V20.75a1.2 1.2 0 0 1-1.192 1.194c-.637 0-1.168-.556-1.168-1.194V4.475ZM46.32 2.056c-.668 0-1.192.557-1.192 1.194v14.363L34.522 2.5a1.228 1.228 0 0 0-.943-.444c-.693 0-1.224.557-1.224 1.25V20.75c0 .637.525 1.194 1.168 1.194a1.2 1.2 0 0 0 1.192-1.194V6.388l10.407 14.88c.3.445.724.676 1.136.676.693 0 1.223-.556 1.223-1.25V3.25c0-.637-.524-1.194-1.161-1.194ZM51.695 12c0-5.581 4.357-10 9.876-10 3.109 0 5.8 1.419 7.516 3.5.224.25.33.556.33.831A1.18 1.18 0 0 1 68.226 7.5c-.306 0-.668-.194-.942-.475-1.33-1.669-3.328-2.775-5.718-2.775-4.164 0-7.436 3.419-7.436 7.75 0 4.306 3.272 7.725 7.436 7.725 3.633 0 6.517-2.613 7.185-6.081H63.2c-.612 0-1.08-.475-1.08-1.082 0-.612.474-1.112 1.08-1.112h7.104c.612 0 1.08.5 1.08 1.169C71.228 17.363 67.176 22 61.577 22c-5.525 0-9.882-4.419-9.882-10Zm24.084-8.75c0-.669.524-1.194 1.167-1.194a1.18 1.18 0 0 1 1.192 1.194v17.5a1.2 1.2 0 0 1-1.192 1.194c-.637 0-1.167-.556-1.167-1.194V3.25Zm15.706 8.556c2.054-.75 2.972-2.556 2.972-4.306 0-2.887-2.272-5.225-5.437-5.225h-4.576c-.637 0-1.168.525-1.168 1.169v17.081c0 .669.524 1.194 1.168 1.194h4.744c3.221 0 5.55-2.388 5.55-5.332-.007-1.943-1.118-3.83-3.253-4.58Zm-2.803-7.331c2.023 0 3.328 1.388 3.328 3.169a3.114 3.114 0 0 1-3.134 3.137H85.63V4.475h3.052Zm.169 15.05H85.63v-6.55h3.415c1.804 0 3.246 1.475 3.246 3.275 0 1.831-1.361 3.275-3.44 3.275ZM99.257 3.25c0-.669.525-1.194 1.167-1.194.669 0 1.193.525 1.193 1.194v16.275h6.686c.612 0 1.08.475 1.08 1.081 0 .613-.475 1.113-1.08 1.113h-7.879a1.18 1.18 0 0 1-1.167-1.194V3.25Zm-70.21 16.038L21.867 3.28c-.605-1.344-1.585-1.344-2.19 0l-7.173 16.007c-.606 1.343.106 2.443 1.58 2.443h13.383c1.467 0 2.18-1.1 1.58-2.444Zm-14.127.243 5.855-13.143 5.856 13.143H14.92Zm99.226-15.012h9.22c.618 0 1.124-.5 1.124-1.125 0-.619-.499-1.125-1.124-1.125h-9.22a1.124 1.124 0 1 0 0 2.25Zm0 17.212h9.22c.618 0 1.124-.5 1.124-1.125 0-.619-.499-1.125-1.124-1.125h-9.22a1.124 1.124 0 1 0 0 2.25Zm1.517-8.681h6.186a1.124 1.124 0 1 0 0-2.25h-6.186a1.124 1.124 0 1 0 0 2.25Z"/>
  </g>
  <defs>
    <clipPath id="tangible-logo-dark_svg__a">
      <path fill="#fff" d="M0 2h124.49v20H0z"/>
    </clipPath>
  </defs>
</svg>
